X:3069
T:Sjijnmyra-valsen
C:anon.
O:Denmark
R:Vals, waltz
F:http://abc.musicaviva.com/tunes/denmark/sjijnmyra-valsen/sjijnmyra-valsen-1.abc
M:3/4
L:1/8
K:D
"D"F2(AF)A2|"G"G2(BG)"Em"B2|"A7"A2c2e2|[1"D"d2(cB)A2:|[2"D"d4 z2||
|:"D"(d2f2)"B7"a2|"Em"g3fe2|"A7"(c2e2)g2|"D"f3ed2|
"D"F2(AF)A2|"G"G2(BG)"Em"B2|"A7"A2c2e2|"D"d4 a2|]
W:
W:
W:  From Musica Viva - http://www.musicaviva.com
W:  the Internet center for free sheet music downloads.

